img/elem/ElemThinLens24.svg

<svg height="24" width="24" xmlns="http://www.w3.org/2000/svg" xmlns:xlink="http://www.w3.org/1999/xlink">
  <linearGradient id="a" gradientUnits="userSpaceOnUse" x1="10.088602" x2="9.93851" y1="1.047912" y2="23">
    <stop offset="0" stop-color="#dbf6ff"/>
    <stop offset="1" stop-color="#7ddcfd"/>
  </linearGradient>
  <path d="m8.5444104.77394888h2.6821936s3.066105 5.42324192 3.09516 11.18100212c.029056 5.757761-3.09516 11.304767-3.09516 11.304767h-2.2542233s-2.2142173-5.617886-2.2142173-11.242886c0-5.6250003 1.786247-11.24288312 1.786247-11.24288312z" fill="#a1daff" fill-rule="evenodd"/>
  <path d="m1.5170154 22.53744 20.9765496-20.9314995" fill="none" stroke="#f00" stroke-linecap="round" stroke-width="3"/>
  <path d="m8.9723807.77394888h2.2542233s3.066105 5.42324192 3.09516 11.18100212c.029056 5.757761-3.09516 11.304767-3.09516 11.304767h-2.2542233s-2.2142173-5.617886-2.2142173-11.242886c0-5.6250003 2.2142173-11.24288312 2.2142173-11.24288312z" fill="url(#a)" fill-rule="evenodd" stroke="#00b4ff" stroke-width="1.5"/>
  <g fill="none">
    <path d="m17.523018 1.5225247h4.976982v5.0127018" stroke="#f00" stroke-linecap="round" stroke-linejoin="round" stroke-width="3"/>
    <path d="m.00217785 12.5h23.03999715" stroke="#000" stroke-dasharray="2 1"/>
    <path d="m5.3967093 18.647167 11.1005487-11.1005491" stroke="#f00" stroke-opacity=".316667" stroke-width="3"/>
  </g>
</svg>

<?xml version="1.0" encoding="UTF-8" standalone="no"?>
<!-- Created with Inkscape (http://www.inkscape.org/) -->
<svg
   xmlns:dc="http://purl.org/dc/elements/1.1/"
   xmlns:cc="http://creativecommons.org/ns#"
   xmlns:rdf="http://www.w3.org/1999/02/22-rdf-syntax-ns#"
   xmlns:svg="http://www.w3.org/2000/svg"
   xmlns="http://www.w3.org/2000/svg"
   xmlns:xlink="http://www.w3.org/1999/xlink"
   xmlns:sodipodi="http://sodipodi.sourceforge.net/DTD/sodipodi-0.dtd"
   xmlns:inkscape="http://www.inkscape.org/namespaces/inkscape"
   width="24"
   height="24"
   id="svg2160"
   sodipodi:version="0.32"
   inkscape:version="0.46"
   inkscape:export-filename="D:\user documents\_kolyan\rezonator2\elems\ElemThinLens24.png"
   inkscape:export-xdpi="90"
   inkscape:export-ydpi="90"
   version="1.0"
   sodipodi:docbase="D:\Projects\Resonator\elements\svg"
   sodipodi:docname="ElemThinLens24.svg"
   inkscape:output_extension="org.inkscape.output.svg.inkscape">
  <defs
     id="defs2162">
    <linearGradient
       id="linearGradient3261">
      <stop
         style="stop-color:#dbf6ff;stop-opacity:1;"
         offset="0"
         id="stop3263" />
      <stop
         style="stop-color:#7ddcfd;stop-opacity:1;"
         offset="1"
         id="stop3265" />
    </linearGradient>
    <linearGradient
       inkscape:collect="always"
       xlink:href="#linearGradient3261"
       id="linearGradient3267"
       x1="12"
       y1="0"
       x2="12"
       y2="24"
       gradientUnits="userSpaceOnUse"
       spreadMethod="pad"
       gradientTransform="matrix(0.96,0,0,0.96,28,4.4946248)" />
    <inkscape:perspective
       sodipodi:type="inkscape:persp3d"
       inkscape:vp_x="0 : 12 : 1"
       inkscape:vp_y="0 : 1000 : 0"
       inkscape:vp_z="24 : 12 : 1"
       inkscape:persp3d-origin="12 : 8 : 1"
       id="perspective2465" />
    <marker
       inkscape:stockid="TriangleOutM"
       orient="auto"
       refY="0"
       refX="0"
       id="TriangleOutM"
       style="overflow:visible">
      <path
         id="path7131"
         d="M 5.77,0 L -2.88,5 L -2.88,-5 L 5.77,0 z "
         style="fill-rule:evenodd;stroke:#000000;stroke-width:1pt;marker-start:none"
         transform="scale(0.4,0.4)" />
    </marker>
    <marker
       inkscape:stockid="TriangleOutS"
       orient="auto"
       refY="0"
       refX="0"
       id="TriangleOutS"
       style="overflow:visible">
      <path
         id="path7134"
         d="M 5.77,0 L -2.88,5 L -2.88,-5 L 5.77,0 z "
         style="fill-rule:evenodd;stroke:#000000;stroke-width:1pt;marker-start:none"
         transform="scale(0.2,0.2)" />
    </marker>
    <marker
       inkscape:stockid="TriangleInS"
       orient="auto"
       refY="0"
       refX="0"
       id="TriangleInS"
       style="overflow:visible">
      <path
         id="path7125"
         d="M 5.77,0 L -2.88,5 L -2.88,-5 L 5.77,0 z "
         style="fill-rule:evenodd;stroke:#000000;stroke-width:1pt;marker-start:none"
         transform="scale(-0.2,-0.2)" />
    </marker>
    <marker
       inkscape:stockid="Arrow2Mend"
       orient="auto"
       refY="0"
       refX="0"
       id="Arrow2Mend"
       style="overflow:visible">
      <path
         id="path7057"
         style="font-size:12px;fill-rule:evenodd;stroke-width:0.625;stroke-linejoin:round"
         d="M 8.7185878,4.0337352 L -2.2072895,0.016013256 L 8.7185884,-4.0017078 C 6.97309,-1.6296469 6.9831476,1.6157441 8.7185878,4.0337352 z "
         transform="scale(-0.6,-0.6)" />
    </marker>
    <marker
       inkscape:stockid="Arrow1Mend"
       orient="auto"
       refY="0"
       refX="0"
       id="Arrow1Mend"
       style="overflow:visible">
      <path
         id="path7039"
         d="M 0,0 L 5,-5 L -12.5,0 L 5,5 L 0,0 z "
         style="fill-rule:evenodd;stroke:#000000;stroke-width:1pt;marker-start:none"
         transform="matrix(-0.4,0,0,-0.4,-4,0)" />
    </marker>
    <linearGradient
       inkscape:collect="always"
       xlink:href="#linearGradient3261"
       id="linearGradient3634"
       x1="10.088602"
       y1="1.0479119"
       x2="9.9385099"
       y2="23"
       gradientUnits="userSpaceOnUse" />
  </defs>
  <sodipodi:namedview
     id="base"
     pagecolor="#ffffff"
     bordercolor="#666666"
     borderopacity="1.0"
     inkscape:pageopacity="0.0"
     inkscape:pageshadow="2"
     inkscape:zoom="22.791667"
     inkscape:cx="17.879342"
     inkscape:cy="12"
     inkscape:current-layer="layer1"
     showgrid="true"
     inkscape:grid-bbox="true"
     inkscape:document-units="px"
     width="24px"
     height="24px"
     inkscape:window-width="1024"
     inkscape:window-height="753"
     inkscape:window-x="0"
     inkscape:window-y="0"
     inkscape:snap-global="false">
    <inkscape:grid
       type="xygrid"
       id="grid2467"
       visible="true"
       enabled="true" />
  </sodipodi:namedview>
  <metadata
     id="metadata2165">
    <rdf:RDF>
      <cc:Work
         rdf:about="">
        <dc:format>image/svg+xml</dc:format>
        <dc:type
           rdf:resource="http://purl.org/dc/dcmitype/StillImage" />
      </cc:Work>
    </rdf:RDF>
  </metadata>
  <g
     id="layer1"
     inkscape:label="Layer 1"
     inkscape:groupmode="layer">
    <path
       sodipodi:nodetypes="cczsczc"
       id="path26721"
       d="M 8.5444104,0.77394888 C 8.5444104,0.77394888 11.226604,0.77394888 11.226604,0.77394888 C 11.226604,0.77394888 14.292709,6.1971908 14.321764,11.954951 C 14.35082,17.712712 11.226604,23.259718 11.226604,23.259718 C 11.226604,23.259718 8.9723807,23.259718 8.9723807,23.259718 C 8.9723807,23.259718 6.7581634,17.641832 6.7581634,12.016832 C 6.7581634,6.3918317 8.5444104,0.77394888 8.5444104,0.77394888 z "
       style="fill:#a1daff;fill-opacity:1;fill-rule:evenodd;stroke:none;stroke-width:1.5;stroke-miterlimit:4;stroke-dashoffset:0;stroke-opacity:1" />
    <path
       style="fill:none;fill-rule:evenodd;stroke:#ff0000;stroke-width:3;stroke-linecap:round;stroke-linejoin:miter;marker-end:none;stroke-miterlimit:4;stroke-dasharray:none;stroke-opacity:1"
       d="M 1.5170154,22.53744 L 22.493565,1.6059405"
       id="path6056"
       sodipodi:nodetypes="cc" />
    <path
       style="fill:url(#linearGradient3634);fill-opacity:1;fill-rule:evenodd;stroke:#00b4ff;stroke-width:1.50000000000000000;stroke-miterlimit:4;stroke-dashoffset:0;stroke-opacity:1"
       d="M 8.9723807,0.77394888 C 8.9723807,0.77394888 11.226604,0.77394888 11.226604,0.77394888 C 11.226604,0.77394888 14.292709,6.1971908 14.321764,11.954951 C 14.35082,17.712712 11.226604,23.259718 11.226604,23.259718 C 11.226604,23.259718 8.9723807,23.259718 8.9723807,23.259718 C 8.9723807,23.259718 6.7581634,17.641832 6.7581634,12.016832 C 6.7581634,6.3918317 8.9723807,0.77394888 8.9723807,0.77394888 z "
       id="path3145"
       sodipodi:nodetypes="cczsczc" />
    <path
       style="fill:none;fill-rule:evenodd;stroke:#ff0000;stroke-width:3;stroke-linecap:round;stroke-linejoin:round;stroke-miterlimit:4;stroke-dasharray:none;stroke-opacity:1"
       d="M 17.523018,1.5225247 L 22.5,1.5225247 L 22.5,6.5352265"
       id="path8202"
       sodipodi:nodetypes="ccc" />
    <path
       style="fill:none;fill-rule:evenodd;stroke:#000000;stroke-width:1;stroke-linecap:butt;stroke-linejoin:miter;stroke-miterlimit:4;stroke-dasharray:2, 1;stroke-dashoffset:0;stroke-opacity:1"
       d="M 0.0021778463,12.5 L 23.042175,12.5"
       id="path25750" />
    <path
       style="fill:none;fill-rule:evenodd;stroke:#ff0000;stroke-width:3;stroke-linecap:butt;stroke-linejoin:miter;stroke-opacity:0.31666666;stroke-miterlimit:4;stroke-dasharray:none"
       d="M 5.3967093,18.647167 L 16.497258,7.5466179"
       id="path3636"
       sodipodi:nodetypes="cc" />
  </g>
</svg>
